src/theme/img/fairways_icon.svg

<svg width="24" height="24" viewBox="0 0 24 24" xmlns="http://www.w3.org/2000/svg">
  <g fill="none" fill-rule="evenodd">
    <path fill="#FFF" d="M0 0h24v24H0z"/>
    <path d="m15.6666667 22-7.30555559-2.5833333-4.97222222 1.9722222c-.31481482.1666667-.625.1574074-.93055556-.0277778C2.15277778 21.1759259 2 20.8981481 2 20.5277778V5.02777778c0-.24074074.06944444-.45370371.20833333-.63888889.13888889-.18518519.31944445-.32407408.54166667-.41666667L8.36111111 2l7.30555559 2.55555556 4.9444444-1.97222223c.3148148-.14814814.625-.13425926.9305556.04166667C21.8472222 2.80092593 22 3.07407407 22 3.44444444V19.1388889c0 .2037037-.0694444.3796296-.2083333.5277778-.1388889.1481481-.3101852.2592592-.5138889.3333333l-5.6111111 2Zm-.9444445-2.0833333V5.88888889L9.27777778 4.05555556V18.0833333l5.44444442 1.8333334Zm1.6666667 0 3.9444444-1.3055556V4.38888889l-3.9444444 1.5V19.9166667Zm-12.72222223-.3333334 3.94444444-1.5V4.05555556L3.66666667 5.36111111V19.5833333ZM16.3888889 5.88888889V19.9166667 5.88888889ZM7.61111111 4.05555556V18.0833333 4.05555556Z" stroke="#0064AF" stroke-width=".5" fill="#0064AF" fill-rule="nonzero"/>
  </g>
</svg>

<?xml version="1.0" encoding="UTF-8"?>
<svg width="24px" height="24px" viewBox="0 0 24 24" version="1.1" xmlns="http://www.w3.org/2000/svg" xmlns:xlink="http://www.w3.org/1999/xlink">
    <g id="Squat-laskuri" stroke="none" stroke-width="1" fill="none" fill-rule="evenodd">
        <g id="colors_and_typography" transform="translate(-906.000000, -748.000000)">
            <g id="icons" transform="translate(722.000000, 748.000000)">
                <g id="fairway_icon" transform="translate(184.000000, 0.000000)">
                    <rect id="Rectangle" fill="#FFFFFF" x="0" y="0" width="24" height="24"></rect>
                    <path d="M15.6666667,22 L8.36111111,19.4166667 L3.38888889,21.3888889 C3.07407407,21.5555556 2.76388889,21.5462963 2.45833333,21.3611111 C2.15277778,21.1759259 2,20.8981481 2,20.5277778 L2,5.02777778 C2,4.78703704 2.06944444,4.57407407 2.20833333,4.38888889 C2.34722222,4.2037037 2.52777778,4.06481481 2.75,3.97222222 L8.36111111,2 L15.6666667,4.55555556 L20.6111111,2.58333333 C20.9259259,2.43518519 21.2361111,2.44907407 21.5416667,2.625 C21.8472222,2.80092593 22,3.07407407 22,3.44444444 L22,19.1388889 C22,19.3425926 21.9305556,19.5185185 21.7916667,19.6666667 C21.6527778,19.8148148 21.4814815,19.9259259 21.2777778,20 L15.6666667,22 Z M14.7222222,19.9166667 L14.7222222,5.88888889 L9.27777778,4.05555556 L9.27777778,18.0833333 L14.7222222,19.9166667 Z M16.3888889,19.9166667 L20.3333333,18.6111111 L20.3333333,4.38888889 L16.3888889,5.88888889 L16.3888889,19.9166667 Z M3.66666667,19.5833333 L7.61111111,18.0833333 L7.61111111,4.05555556 L3.66666667,5.36111111 L3.66666667,19.5833333 Z M16.3888889,5.88888889 L16.3888889,19.9166667 L16.3888889,5.88888889 Z M7.61111111,4.05555556 L7.61111111,18.0833333 L7.61111111,4.05555556 Z" id="map_icon" stroke="#0064AF" stroke-width="0.5" fill="#0064AF" fill-rule="nonzero"></path>
                </g>
            </g>
        </g>
    </g>
</svg>
